!!!COM: Palestrina, Giovanni Perluigi da
!!!OPR: Missa Primi toni
!!!OMD: Benedictus
!!!OTL: First Section
**kern	**kern	**kern
*Icalto	*Icant	*Icant
!Altus	!Cantus 2	!Cantus 1
*clefG2	*clefG2	*clefG2
*k[b-]	*k[b-]	*k[b-]
*G:dor	*G:dor	*G:dor
*M4/2	*M4/2	*M4/2
=1	=1	=1
1d	0r	0r
1f	.	.
=2	=2	=2
1e	0r	1g
2d	.	1b-
[2g	.	.
=3	=3	=3
4g]	0r	1a
4f	.	.
4f	.	.
8g	.	.
8a	.	.
1b-	.	2g
.	.	[2dd
=4	=4	=4
1a	1r	4dd]
.	.	4cc
.	.	4cc
.	.	8dd
.	.	8ee
2.d	1dd	2.ff
4c#	.	4ee
=5	=5	=5
4d	1ff	4dd
4e	.	4cc#
4f	.	2.dd
4g	.	.
1a	1ee	.
.	.	4cc
.	.	2cc
=6	=6	=6
1r	2dd	1b-
.	2.g	.
[1d	.	1a
.	4f	.
.	4f	.
.	8g	.
.	8a	.
=7	=7	=7
1d]	2b-	2r
.	4a	2dd
.	4g	.
1f	1a	2cc
.	.	[2dd
=8	=8	=8
1e	1g	2dd]
.	.	2cc
2d	[1dd	1b-
[2g	.	.
=9	=9	=9
4g]	1dd]	1a
4f	.	.
4f	.	.
8g	.	.
8a	.	.
2.b-	2r	4g
.	.	4a
.	2g	4b-
4a	.	4cc
=10	=10	=10
4g	1b-	1dd
4f	.	.
1g	.	.
.	1a	1r
2f	.	.
=11	=11	=11
2.b-	1g	1dd
8a	.	.
8g	.	.
2f	2r	1ff
2d	[2dd	.
=12	=12	=12
1a	4dd]	1ee
.	4cc	.
.	4cc	.
.	8dd	.
.	8ee	.
2r	2.ff	1dd
2d	.	.
.	4ee	.
=13	=13	=13
2f	2dd	2r
2e	2cc	2.g
1d	2b-	.
.	.	4f
.	2a	4f
.	.	8g
.	.	8a
=14	=14	=14
2r	0g	2b-
2.c	.	2cc
.	.	2.dd
4B-	.	.
4B-	.	.
8c	.	4cc
8d	.	.
=15	=15	=15
1e-	2r	4b-
.	.	4a
.	2.g	2.b-
[1d	.	.
.	4f	4a
.	4f	[2a
.	8g	.
.	8a	.
=16	=16	=16
1d]	1b-	2a]
.	.	1g
1d	1a	.
.	.	2f#
=17	=17	=17
2r	2g	1g
2g	2b-	.
2.f	2.a	1r
4e	4g	.
=18	=18	=18
2f	2a	2r
2g	2b-	2dd
2e	2g	2.cc
[2f	2a	.
.	.	4b-
=19	=19	=19
4f]	1r	2cc
4e	.	.
4d	.	2.dd
4c	.	.
4B-	1dd	.
4c	.	4cc
4d	.	2b-
4e	.	.
=20	=20	=20
1f	2.cc	4a
.	.	4b-
.	.	4cc
.	4b	4dd
1r	2cc	2ee
.	4dd	[2ff
.	4cc	.
=21	=21	=21
1r	4dd	4ff]
.	4ee	4ee
.	1ff	1dd
1a	.	.
.	[2ee	2cc#
=22	=22	=22
2.g	4ee]	1dd
.	4dd	.
.	1dd	.
4f	.	.
2g	.	2.ee
2a	2cc#	.
.	.	4ee
=23	=23	=23
4f	1dd	1dd
2g	.	.
8f	.	.
8e	.	.
1d	1ff	2r
.	.	2dd
=24	=24	=24
2r	2.ee	2.cc
2a	.	.
.	4dd	4b
2a	2ee	2cc
2d	[2ff	[2dd
=25	=25	=25
2f	4ff]	4dd]
.	4ee-	4cc
2.g	4dd	4b-
.	4cc	4a
.	2dd	1b-
4f	.	.
4e-	[2ee-	.
4d	.	.
=26	=26	=26
2c	2ee-]	2cc
2B	2dd	2dd
[1c	[1cc	[1ee-
=27	=27	=27
1c]	1cc]	1ee-]
1g	1b	1dd
=28	=28	=28
[0g	[0b	[0dd
=29	=29	=29
0g]	0b]	0dd]
*-	*-	*-
!!!CDT: 1525/^1526/-1594/2/2
!!!OCY: Italia
!!!AGN: Mass (Free)
!!!AST: renaissance, vocal
!!!ASW: Popular Song
!!!PWK: Masses, Book 4
!!!RNB: Cadence finals: D
!!!YOR: Le Opere Complete, v. 10, p. 19
!!!YOO: Rome, Italy: Fratelli Scalera
!!!END: 1992//
!!!EED: John Miller
!!!YEC: Copyright 2000, John Miller
!!!YEN: United States of America
!!!YEM: Rights to all derivative electronic formats reserved.
!!!YEM: Refer to licensing agreement for further details.
!!!YEM: This file must be accompanied by the licensing agreement.
!!!YEM: A copy of the licensing agreement may be found at http://www.music-cog.ohio-state.edu/HumdrumDatabases/Palestrina/license.txt
!!!EMD: converted to Humdrum by Bret Aarden
